icons/svg/stethoscope.svg

<svg xmlns="http://www.w3.org/2000/svg" version="1.1" baseProfile="full" width="24" height="24" viewBox="0 0 24.00 24.00" xml:space="preserve"><path fill="#000" fill-opacity="1" stroke-linejoin="round" d="M18.996 7.99c.564 0 1 .436 1 1 0 .564-.436 1-1 1-.564 0-1-.436-1-1 0-.564.436-1 1-1zm-17-6.01v9c.003 2.98 2.19 5.5 5.14 5.93C7.763 19.92 10.42 22 13.5 22c3.59 0 6.5-2.91 6.5-6.5v-3.69c1.16-.417 2-1.52 2-2.81 0-1.65-1.35-3-3-3s-3 1.35-3 3c0 1.29.843 2.4 2 2.81l.004 3.6c0 2.5-2 4.5-4.5 4.5-2 0-3.684-1.21-4.284-3.01C12 16.3 14 13.8 14 11V2h-4v3h2v6c0 2.21-1.79 4-4 4s-4-1.8-4-4V5h2V2l-4.004-.02z"/></svg>

﻿<?xml version="1.0" encoding="utf-8"?>
<!DOCTYPE svg PUBLIC "-//W3C//DTD SVG 1.1//EN" "http://www.w3.org/Graphics/SVG/1.1/DTD/svg11.dtd">
<svg xmlns="http://www.w3.org/2000/svg" xmlns:xlink="http://www.w3.org/1999/xlink" version="1.1" baseProfile="full" width="24" height="24" viewBox="0 0 24.00 24.00" enable-background="new 0 0 24.00 24.00" xml:space="preserve">
	<path fill="#000000" fill-opacity="1" stroke-linejoin="round" d="M 18.996,7.99C 19.56,7.99 19.996,8.426 19.996,8.99C 19.996,9.554 19.56,9.99 18.996,9.99C 18.432,9.99 17.996,9.554 17.996,8.99C 17.996,8.426 18.432,7.99 18.996,7.99 Z M 1.996,1.98L 1.996,10.98C 1.999,13.96 4.186,16.48 7.136,16.91C 7.763,19.92 10.42,22 13.5,22C 17.09,22 20,19.09 20,15.5L 20,11.81C 21.16,11.393 22,10.29 22,9C 22,7.35 20.65,6 19,6C 17.35,6 16,7.35 16,9C 16,10.29 16.843,11.4 18,11.81L 18.004,15.41C 18.004,17.91 16.004,19.91 13.504,19.91C 11.504,19.91 9.82,18.7 9.22,16.9C 12,16.3 14,13.8 14,11L 14,2L 10,2L 10,5L 12,5L 12,11C 12,13.21 10.21,15 8,15C 5.79,15 4,13.2 4,11L 4,5L 6,5L 6,2L 1.996,1.98 Z "/>
</svg>
